!!!OTL: KOMM LIEBCHEN KOMM AUFS LAND
!!!ARE: Europa, Mitteleuropa, Deutschland
!!!SCT: F0905
!!!YEM: Copyright 1995, estate of Helmut Schaffrath.
**kern
*ICvox
*Ivox
*M6/8
*k[b-]
*F:
{4.cc
=1
4a
8f
4g
8e
=2
4.f
4r}
{8f
=3
4dd
8dd
4dd
8dd
=4
4.cc
4f}
{8f
=5
4dd
8dd
8ff
8ee
8dd
=6
4cc
8f}
{4.b-
=7
8a
8cc
8f
8e
8f
8g
=8
4f
8r}
==
!!!AGN: Liebes - Lied
!!!ONB: ESAC (Essen Associative Code) Database: FINK
!!!AMT: compound duple
!!!AIN: vox
!!!EED: Helmut Schaffrath
!!!EEV: 1.0
*-
